dist/img/partners/3.svg

<svg width="244" height="40" viewBox="0 0 244 40" fill="none" xmlns="http://www.w3.org/2000/svg">
<g clip-path="url(#clip0_216_685)">
<path d="M180.821 15.0001C180.965 18.7503 181.202 23.2446 170.748 23.2965H160.315C149.692 23.3311 150.551 17.6966 150.217 14.6895V6.41031C150.217 3.17868 152.079 0.500027 160.363 0.533616H170.03C179.101 0.500234 180.892 3.17868 180.892 6.41031V8.00021H168.91C168.91 5.99604 168.312 4.75158 166.545 4.57886H164.613C162.845 4.56103 162.248 6.15093 162.248 8.15634V13.3071C162.416 15.3293 162.32 18.578 164.9 18.5956H166.283C168.36 18.6298 168.718 17.0229 168.839 14.9833L180.821 15.0001ZM71.2135 0.812699L67.4892 16.7965L62.9046 0.812699H47.8378L43.2292 16.7965L39.528 0.812699H28.0664L34.7289 23.0022H52.4693L55.4063 8.89697L58.272 23.0022H76.0384L82.6751 0.812699H71.2135ZM89.4952 0.812492L80.4207 22.9948H92.529L93.6049 19.7965H102.298L103.468 22.9948H116.006L106.572 0.812492H89.4952ZM98.1172 7.50384L100.84 15.4052H95.2266L98.1172 7.50384ZM135.518 16.8218C135.518 17.6178 134.682 18.3619 133.559 18.2918H129.906V13.6242H133.489C134.588 13.6242 135.518 14.298 135.518 15.0936V16.8218ZM129.906 4.87598H133.417C134.516 4.87598 135.448 5.54943 135.448 6.345V7.9181C135.448 8.71368 134.516 9.38795 133.417 9.38795H129.906V4.87598ZM143.759 11.0131C148.368 10.5808 148.177 6.91602 148.177 6.91602V4.9444C148.2 2.00575 145.812 0.726237 142.755 0.812492H117.296V23.0126H139.866C142.851 23.0817 148.439 22.7178 148.511 17.704L148.536 15.906C148.536 15.906 148.655 11.9126 143.759 11.0131ZM195.347 8.0394C195.347 6.03357 195.943 4.44305 197.711 4.46005H201.197C202.917 4.44305 203.776 6.03357 203.705 8.0394V13.2957C203.705 15.2659 203.537 18.4996 200.935 18.5166H198.236C195.656 18.4996 195.37 15.3358 195.346 13.2957L195.347 8.0394ZM183.021 6.39684V14.6779C183.189 17.877 183.166 23.2707 193.125 23.289H205.784C215.792 23.2707 215.885 17.8502 215.933 14.6994V6.39103C215.929 3.1623 212.279 0.52014 207.819 0.518066H191.137C186.674 0.52014 183.021 3.16541 183.021 6.39684Z" fill="#005AA9"/>
<path d="M38.789 32.3776C38.618 32.1791 38.4022 32.0028 38.1505 31.8561C37.618 31.5469 36.9551 31.3792 36.2724 31.3809C35.628 31.3809 35.0806 31.4713 34.6312 31.6515C34.1906 31.8258 33.8152 32.075 33.5371 32.3776C33.2572 32.6813 33.0539 33.0268 32.9261 33.4139C32.7975 33.8075 32.7332 34.2107 32.7348 34.6152C32.7348 35.0112 32.7986 35.3965 32.9261 35.7703C33.0539 36.1446 33.2572 36.4811 33.5371 36.7803C33.8166 37.0795 34.1815 37.3194 34.6312 37.4998C35.0809 37.6802 35.628 37.7703 36.2724 37.7703C37.1477 37.7703 37.8314 37.5769 38.3241 37.1896C38.8164 36.8025 39.1175 36.2918 39.2266 35.6582H41.9986C41.9259 36.2478 41.7371 36.7803 41.4332 37.2555C41.129 37.7307 40.7281 38.1355 40.2297 38.4699C39.731 38.8044 39.1476 39.0596 38.479 39.2354C37.8102 39.4115 37.075 39.4994 36.2724 39.4994C35.2754 39.4994 34.3786 39.3741 33.5823 39.1233C32.786 38.8724 32.1144 38.5271 31.5673 38.087C31.0202 37.647 30.6006 37.1299 30.3088 36.5358C30.0169 35.9418 29.8711 35.3015 29.8711 34.615C29.8711 33.9109 30.0169 33.2575 30.3088 32.6546C30.6006 32.0521 31.0199 31.526 31.5673 31.0771C32.1144 30.6284 32.786 30.2766 33.5823 30.0209C34.3786 29.7659 35.2754 29.6382 36.2724 29.6382C36.9896 29.6382 37.6676 29.713 38.3058 29.8625C38.9439 30.0124 39.5153 30.2299 40.02 30.5159C40.5244 30.802 40.9409 31.1561 41.2691 31.5787C41.5974 32.0011 41.8039 32.4852 41.8892 33.0307H39.1172C39.0713 32.7989 38.9595 32.5765 38.789 32.3776ZM53.5241 38.569C52.5394 39.1894 51.1777 39.4996 49.4391 39.4996C47.6762 39.4996 46.3116 39.1917 45.3449 38.5755C44.3785 37.9594 43.8951 37.009 43.8951 35.7241V29.8625H46.7582V35.7241C46.7582 35.9793 46.7882 36.2302 46.8493 36.4765C46.91 36.7229 47.0377 36.9408 47.2322 37.1299C47.4267 37.3192 47.6974 37.473 48.0436 37.592C48.3899 37.7108 48.8551 37.7701 49.4388 37.7701C50.4599 37.7701 51.1651 37.6051 51.5544 37.275C51.9433 36.9449 52.1378 36.4282 52.1378 35.7241V29.8625H55.0009V35.7241C55.0012 37.0003 54.5088 37.9485 53.5241 38.569ZM59.6516 36.965C59.8094 37.1852 60.0191 37.3633 60.2806 37.4998C60.5421 37.6362 60.8489 37.7374 61.2015 37.8033C61.5538 37.8692 61.9187 37.9024 62.2956 37.9024C62.5508 37.9024 62.8243 37.8873 63.1162 37.8562C63.4006 37.8271 63.6772 37.767 63.9368 37.6781C64.1853 37.5941 64.4037 37.4699 64.5753 37.315C64.7454 37.1612 64.8308 36.965 64.8308 36.7276C64.8308 36.4726 64.7182 36.2655 64.4933 36.107C64.2682 35.9486 63.9738 35.8168 63.6089 35.7112C63.2442 35.6055 62.8306 35.5132 62.3686 35.4338C61.8981 35.353 61.43 35.265 60.9646 35.1699C60.4819 35.0829 60.0069 34.9749 59.5422 34.8464C59.0802 34.7191 58.6669 34.5541 58.302 34.3513C57.9352 34.1472 57.6335 33.8883 57.4175 33.5922C57.1924 33.2886 57.0801 32.9214 57.0801 32.49C57.0801 32.006 57.223 31.5857 57.5086 31.2293C57.7941 30.8729 58.1679 30.576 58.6302 30.3382C59.0922 30.1006 59.6149 29.9247 60.1987 29.8101C60.7692 29.6971 61.3579 29.6394 61.9493 29.6386C62.6301 29.6386 63.2835 29.6938 63.9099 29.8036C64.536 29.9137 65.092 30.0921 65.5786 30.3382C66.062 30.5824 66.4588 30.9059 66.7366 31.2822C67.0222 31.6652 67.1651 32.1294 67.1651 32.6749H64.3931C64.3688 32.3936 64.2865 32.1601 64.1471 31.9753C64.007 31.7904 63.8217 31.6453 63.5908 31.5395C63.3597 31.434 63.0953 31.3593 62.7974 31.3152C62.4761 31.2696 62.1493 31.2475 61.8219 31.2492C61.5907 31.2492 61.3596 31.2669 61.129 31.3021C60.9053 31.3352 60.692 31.3978 60.4997 31.4868C60.311 31.575 60.156 31.6849 60.0346 31.8169C59.9128 31.949 59.8521 32.1161 59.8521 32.3187C59.8521 32.5037 59.9005 32.6531 59.9979 32.7676C60.095 32.8821 60.2866 32.9876 60.5725 33.0842C60.858 33.1812 61.253 33.2781 61.7577 33.3747C62.4163 33.5005 63.0759 33.6236 63.7363 33.7442C63.9795 33.7794 64.3166 33.8433 64.7486 33.9356C65.1799 34.028 65.6084 34.1754 66.0343 34.378C66.4597 34.5806 66.8277 34.8512 67.1376 35.1898C67.4475 35.5288 67.6028 35.9621 67.6028 36.49C67.6028 36.9213 67.4871 37.3219 67.2562 37.6913C67.0251 38.061 66.6819 38.3801 66.2259 38.6484C65.7699 38.9169 65.2048 39.1259 64.53 39.2754C63.8555 39.4249 63.0741 39.4998 62.1865 39.4998C61.469 39.4998 60.7733 39.4357 60.0984 39.3084C59.4239 39.1809 58.8279 38.9806 58.3114 38.7077C57.7944 38.4353 57.3843 38.0874 57.0804 37.665C56.7762 37.2425 56.6304 36.7409 56.6427 36.1599H59.4147C59.4145 36.4765 59.4932 36.745 59.6516 36.965ZM68.277 31.6052V29.8627H78.9455V31.6052H75.043V39.2885H72.1799V31.6052H68.277ZM80.3129 32.6548C80.6048 32.0523 81.0241 31.5262 81.5715 31.0773C82.1185 30.6287 82.7902 30.2768 83.5865 30.0211C84.3827 29.7661 85.2795 29.6384 86.2766 29.6384C87.2854 29.6384 88.185 29.7659 88.9756 30.0211C89.7658 30.2766 90.4343 30.6287 90.9814 31.0773C91.5285 31.5262 91.9481 32.0523 92.24 32.6548C92.5318 33.2578 92.6776 33.9113 92.6776 34.6152C92.6776 35.3017 92.5318 35.9418 92.24 36.536C91.9481 37.1301 91.5288 37.6472 90.9814 38.0872C90.4343 38.5274 89.7655 38.8726 88.9756 39.1235C88.185 39.3743 87.2857 39.4996 86.2766 39.4996C85.2795 39.4996 84.3827 39.3743 83.5865 39.1235C82.7902 38.8726 82.1185 38.5274 81.5715 38.0872C81.0244 37.6472 80.6048 37.1301 80.3129 36.536C80.021 35.942 79.8753 35.3017 79.8753 34.6152C79.8755 33.9111 80.0213 33.2578 80.3129 32.6548ZM82.93 35.7703C83.0577 36.1446 83.2611 36.4811 83.5409 36.7803C83.8205 37.0795 84.1854 37.3194 84.6351 37.4998C85.0848 37.6802 85.6318 37.7703 86.2763 37.7703C86.9205 37.7703 87.4675 37.6802 87.9175 37.4998C88.3672 37.3194 88.7318 37.0797 89.0117 36.7803C89.2912 36.4811 89.4949 36.1446 89.6226 35.7703C89.7504 35.3963 89.8139 35.0112 89.8139 34.6152C89.8139 34.2018 89.7501 33.8012 89.6226 33.4139C89.4949 33.0268 89.2912 32.6813 89.0117 32.3776C88.7334 32.0751 88.358 31.8259 87.9175 31.6515C87.4675 31.4713 86.9205 31.3809 86.2763 31.3809C85.6318 31.3809 85.0845 31.4713 84.6351 31.6515C84.1945 31.8258 83.8191 32.075 83.5409 32.3776C83.2611 32.6813 83.0577 33.0268 82.93 33.4139C82.8013 33.8075 82.7371 34.2107 82.7387 34.6152C82.7387 35.0112 82.8022 35.3963 82.93 35.7703ZM98.659 29.8627L101.705 36.3447H101.741L104.622 29.8627H108.653V39.2885H105.972V32.6086H105.936L102.744 39.2885H100.538L97.3464 32.6747H97.31V39.2885H94.6293V29.8627H98.659ZM120.907 29.8627V31.6052H114.032V33.625H120.342V35.2356H114.032V37.546H121.054V39.2885H111.169V29.8627H120.907ZM130.007 29.8627C130.591 29.8627 131.116 29.931 131.585 30.0674C132.053 30.2038 132.454 30.3908 132.788 30.6284C133.119 30.8625 133.38 31.1433 133.554 31.4535C133.73 31.7661 133.819 32.1027 133.819 32.4634C133.819 33.0179 133.657 33.4976 133.335 33.9022C133.013 34.3071 132.487 34.615 131.758 34.8263V34.8528C132.11 34.9233 132.402 35.0309 132.633 35.1763C132.864 35.3212 133.056 35.4958 133.199 35.6911C133.345 35.8891 133.451 36.1068 133.518 36.3445C133.584 36.5821 133.63 36.8197 133.655 37.0573C133.667 37.207 133.679 37.3828 133.691 37.5854C133.703 37.788 133.724 37.9947 133.755 38.2058C133.785 38.417 133.834 38.6171 133.901 38.8062C133.968 38.9955 134.068 39.1562 134.202 39.2881H131.339C131.181 38.9891 131.084 38.6327 131.047 38.2188C131.013 37.8215 130.958 37.4252 130.883 37.0308C130.785 36.5381 130.579 36.1773 130.263 35.9482C129.947 35.7193 129.43 35.6051 128.713 35.6051H125.85V39.2883H122.987V29.8625H130.007V29.8627ZM128.986 34.1267C129.643 34.1267 130.135 34.021 130.463 33.8099C130.791 33.5986 130.956 33.2555 130.956 32.7802C130.956 32.3226 130.791 31.9903 130.463 31.7833C130.135 31.5768 129.643 31.4732 128.986 31.4732H125.849V34.1267H128.986ZM149.575 32.3776C149.404 32.1796 149.192 32.0058 148.936 31.8561C148.681 31.7064 148.392 31.5901 148.07 31.5061C147.746 31.4224 147.403 31.38 147.058 31.3809C146.414 31.3809 145.867 31.4713 145.417 31.6515C144.977 31.8258 144.601 32.075 144.323 32.3776C144.043 32.6813 143.84 33.0268 143.712 33.4139C143.583 33.8075 143.519 34.2107 143.52 34.6152C143.52 35.0112 143.585 35.3965 143.712 35.7703C143.84 36.1446 144.043 36.4811 144.323 36.7803C144.603 37.0795 144.967 37.3194 145.417 37.4998C145.867 37.6802 146.414 37.7703 147.058 37.7703C147.934 37.7703 148.617 37.5769 149.11 37.1896C149.602 36.8025 149.903 36.2918 150.013 35.6582H152.785C152.712 36.2478 152.523 36.7803 152.219 37.2555C151.915 37.7307 151.514 38.1355 151.016 38.4699C150.517 38.8044 149.934 39.0596 149.265 39.2354C148.596 39.4115 147.861 39.4994 147.058 39.4994C146.061 39.4994 145.165 39.3741 144.368 39.1233C143.572 38.8724 142.9 38.5271 142.353 38.087C141.806 37.647 141.387 37.1299 141.095 36.5358C140.803 35.9418 140.657 35.3015 140.657 34.615C140.657 33.9109 140.803 33.2575 141.095 32.6546C141.387 32.0521 141.806 31.526 142.353 31.0771C142.9 30.6284 143.572 30.2766 144.368 30.0209C145.164 29.7659 146.061 29.6382 147.058 29.6382C147.776 29.6382 148.453 29.713 149.092 29.8625C149.73 30.0124 150.302 30.2299 150.806 30.5159C151.31 30.802 151.727 31.1561 152.055 31.5787C152.383 32.0011 152.59 32.4852 152.675 33.0307H149.903C149.857 32.799 149.745 32.5766 149.575 32.3776ZM164.474 29.8627V31.6052H157.599V33.625H163.908V35.2356H157.599V37.546H164.62V39.2885H154.736V29.8627H164.474ZM169.398 29.8627L174.832 36.1863H174.869V29.8627H177.55V39.2885H174.687L169.27 32.9783H169.234V39.2885H166.553V29.8627H169.398ZM179.045 31.6052V29.8627H189.713V31.6052H185.811V39.2885H182.948V31.6052H179.045ZM198.23 29.8627C198.813 29.8627 199.339 29.931 199.807 30.0674C200.275 30.2038 200.676 30.3908 201.011 30.6284C201.342 30.8624 201.602 31.1433 201.777 31.4535C201.953 31.7661 202.041 32.1027 202.041 32.4634C202.041 33.0179 201.88 33.4976 201.558 33.9022C201.235 34.3071 200.71 34.615 199.98 34.8263V34.8528C200.333 34.9233 200.625 35.0309 200.856 35.1763C201.086 35.3212 201.278 35.4957 201.421 35.6911C201.567 35.8891 201.673 36.1068 201.74 36.3445C201.807 36.5821 201.852 36.8197 201.877 37.0573C201.889 37.207 201.901 37.3828 201.913 37.5854C201.925 37.788 201.947 37.9947 201.978 38.2058C202.008 38.417 202.056 38.6171 202.123 38.8062C202.19 38.9955 202.29 39.1562 202.424 39.2881H199.561C199.403 38.9891 199.306 38.6327 199.269 38.2188C199.235 37.8215 199.18 37.4252 199.105 37.0308C199.008 36.5381 198.801 36.1773 198.485 35.9482C198.169 35.7193 197.653 35.6051 196.935 35.6051H194.072V39.2883H191.209V29.8625H198.23V29.8627ZM197.209 34.1267C197.865 34.1267 198.357 34.021 198.686 33.8099C199.014 33.5986 199.178 33.2555 199.178 32.7802C199.178 32.3226 199.014 31.9903 198.686 31.7833C198.357 31.5768 197.865 31.4732 197.209 31.4732H194.072V34.1267H197.209ZM214.113 29.8627V31.6052H207.238V33.625H213.548V35.2356H207.238V37.546H214.259V39.2885H204.375V29.8627H214.113Z" fill="#6D7782"/>
</g>
<defs>
<clipPath id="clip0_216_685">
<rect width="244" height="39" fill="white" transform="translate(0 0.5)"/>
</clipPath>
</defs>
</svg>

<svg width="244" height="40" viewBox="0 0 244 40" fill="none" xmlns="http://www.w3.org/2000/svg"><g clip-path="url(#clip0_216_685)"><path d="M180.821 15c.144 3.75.381 8.245-10.073 8.297h-10.433c-10.623.034-9.764-5.6-10.098-8.607V6.41c0-3.231 1.862-5.91 10.146-5.876h9.667c9.071-.034 10.862 2.645 10.862 5.876V8H168.91c0-2.004-.598-3.248-2.365-3.421h-1.932c-1.768-.018-2.365 1.572-2.365 3.577v5.151c.168 2.022.072 5.271 2.652 5.289h1.383c2.077.034 2.435-1.573 2.556-3.613l11.982.017zM71.213.813L67.49 16.797 62.905.813H47.838l-4.609 15.984L39.528.813H28.066l6.663 22.19h17.74l2.937-14.106 2.866 14.105h17.766L82.675.812H71.213zm18.282 0l-9.074 22.182h12.108l1.076-3.198h8.693l1.17 3.198h12.538L106.572.812H89.495zm8.622 6.69l2.723 7.902h-5.613l2.89-7.901zm37.401 9.319c0 .796-.836 1.54-1.959 1.47h-3.653v-4.668h3.583c1.099 0 2.029.674 2.029 1.47v1.728zm-5.612-11.946h3.511c1.099 0 2.031.673 2.031 1.469v1.573c0 .796-.932 1.47-2.031 1.47h-3.511V4.876zm13.853 6.137c4.609-.432 4.418-4.097 4.418-4.097V4.944c.023-2.938-2.365-4.218-5.422-4.132h-25.459v22.2h22.57c2.985.07 8.573-.294 8.645-5.308l.025-1.798s.119-3.993-4.777-4.893zm51.588-2.974c0-2.005.596-3.596 2.364-3.579h3.486c1.72-.017 2.579 1.574 2.508 3.58v5.256c0 1.97-.168 5.204-2.77 5.22h-2.699c-2.58-.016-2.866-3.18-2.89-5.22l.001-5.257zm-12.326-1.642v8.28c.168 3.2.145 8.594 10.104 8.612h12.659c10.008-.018 10.101-5.439 10.149-8.59V6.391c-.004-3.229-3.654-5.87-8.114-5.873h-16.682c-4.463.002-8.116 2.647-8.116 5.879z" fill="#005AA9"/><path d="M38.789 32.378a2.5 2.5 0 00-.639-.522c-.532-.31-1.195-.477-1.878-.475-.644 0-1.191.09-1.64.27a2.96 2.96 0 00-1.095.727c-.28.303-.483.649-.61 1.036a3.81 3.81 0 00-.192 1.201c0 .396.064.782.191 1.155.128.375.331.711.611 1.01.28.3.645.54 1.094.72.45.18.997.27 1.641.27.876 0 1.56-.193 2.052-.58a2.4 2.4 0 00.903-1.532h2.772a3.784 3.784 0 01-.566 1.597c-.304.476-.705.88-1.203 1.215a5.734 5.734 0 01-1.751.765 8.654 8.654 0 01-2.207.264c-.997 0-1.893-.125-2.69-.376-.796-.25-1.468-.596-2.015-1.036a4.558 4.558 0 01-1.258-1.551 4.296 4.296 0 01-.438-1.921c0-.704.146-1.358.438-1.96a4.647 4.647 0 011.258-1.578c.547-.449 1.219-.8 2.015-1.056.797-.255 1.693-.383 2.69-.383.718 0 1.396.075 2.034.224.638.15 1.21.368 1.714.654.504.286.92.64 1.25 1.063.327.422.534.906.62 1.452h-2.773a1.435 1.435 0 00-.328-.653zm14.735 6.191c-.985.62-2.346.93-4.085.93-1.763 0-3.127-.307-4.094-.924-.966-.616-1.45-1.566-1.45-2.85v-5.863h2.863v5.862c0 .255.03.506.091.753.061.246.189.464.383.653.195.19.465.343.812.462.346.119.811.178 1.395.178 1.02 0 1.726-.165 2.115-.495.39-.33.584-.847.584-1.55v-5.863H55v5.862c0 1.276-.492 2.225-1.477 2.845zm6.128-1.604c.157.22.367.398.629.535.261.136.568.237.92.303.353.066.718.1 1.095.1.255 0 .528-.016.82-.047a3.67 3.67 0 00.82-.178c.25-.084.468-.208.64-.363a.758.758 0 00.255-.587c0-.255-.113-.462-.338-.621-.225-.158-.52-.29-.884-.396a11.457 11.457 0 00-1.24-.277c-.47-.081-.939-.169-1.404-.264a15.962 15.962 0 01-1.423-.324 5.614 5.614 0 01-1.24-.495 2.723 2.723 0 01-.885-.759c-.225-.303-.337-.67-.337-1.102 0-.484.143-.904.429-1.26a3.399 3.399 0 011.121-.892 5.896 5.896 0 011.569-.528 9.1 9.1 0 011.75-.171c.681 0 1.334.055 1.96.165a5.97 5.97 0 011.67.534c.483.244.88.568 1.158.944.285.383.428.847.428 1.393h-2.772a1.327 1.327 0 00-.246-.7 1.429 1.429 0 00-.556-.436 2.942 2.942 0 00-.794-.224 6.703 6.703 0 00-.975-.066 4.62 4.62 0 00-.693.053 2.306 2.306 0 00-.63.185 1.464 1.464 0 00-.464.33.711.711 0 00-.183.502c0 .185.049.334.146.449.097.114.289.22.575.316.285.097.68.194 1.185.29.658.127 1.318.25 1.978.37.244.035.58.1 1.013.192.43.092.86.24 1.285.442.426.203.794.473 1.104.812.31.339.465.772.465 1.3 0 .431-.116.832-.347 1.201-.23.37-.574.69-1.03.957-.456.269-1.021.478-1.696.627-.675.15-1.456.225-2.343.225a11.24 11.24 0 01-2.089-.192 6.321 6.321 0 01-1.787-.6 3.484 3.484 0 01-1.23-1.043c-.305-.422-.45-.924-.438-1.505h2.772c0 .317.078.585.237.805zm8.625-5.36v-1.742h10.668v1.742h-3.902v7.683H72.18v-7.683h-3.903zm12.036 1.05a4.648 4.648 0 011.258-1.578c.547-.448 1.22-.8 2.016-1.056.796-.255 1.692-.383 2.69-.383 1.008 0 1.908.128 2.699.383.79.256 1.458.608 2.005 1.056.547.45.967.975 1.259 1.578a4.44 4.44 0 01.438 1.96c0 .687-.146 1.327-.438 1.921a4.556 4.556 0 01-1.259 1.551c-.547.44-1.215.786-2.005 1.036-.791.251-1.69.377-2.7.377-.996 0-1.893-.126-2.69-.377-.796-.25-1.468-.596-2.014-1.036a4.56 4.56 0 01-1.26-1.551 4.296 4.296 0 01-.437-1.92c0-.705.146-1.358.438-1.961zm2.617 3.115c.128.375.331.711.61 1.01.28.3.645.54 1.095.72.45.18.997.27 1.641.27.645 0 1.192-.09 1.642-.27.45-.18.814-.42 1.094-.72.28-.299.483-.635.61-1.01.128-.374.192-.759.192-1.155a3.83 3.83 0 00-.191-1.201 2.819 2.819 0 00-.611-1.036 2.96 2.96 0 00-1.094-.727c-.45-.18-.998-.27-1.642-.27-.644 0-1.191.09-1.64.27a2.96 2.96 0 00-1.095.727 2.81 2.81 0 00-.611 1.036 3.807 3.807 0 00-.191 1.201c0 .396.063.781.191 1.155zm15.729-5.907l3.046 6.482h.036l2.881-6.482h4.031v9.425h-2.681v-6.68h-.036l-3.192 6.68h-2.206l-3.192-6.613h-.036v6.614h-2.68v-9.426h4.029zm22.248 0v1.742h-6.875v2.02h6.31v1.61h-6.31v2.311h7.022v1.742h-9.885v-9.425h9.738zm9.1 0c.584 0 1.109.068 1.578.204.468.137.869.324 1.203.561.331.235.592.515.766.825.176.313.265.65.265 1.01 0 .555-.162 1.035-.484 1.44-.322.404-.848.712-1.577.923v.027c.352.07.644.178.875.323.231.145.423.32.566.515.146.198.252.416.319.653.066.238.112.476.137.713.012.15.024.326.036.528.012.203.033.41.064.62.03.212.079.412.146.601.067.19.167.35.301.482h-2.863a2.806 2.806 0 01-.292-1.07 11.697 11.697 0 00-.164-1.187c-.098-.493-.304-.854-.62-1.083-.316-.229-.833-.343-1.55-.343h-2.863v3.683h-2.863v-9.425h7.02zm-1.021 4.264c.657 0 1.149-.106 1.477-.317.328-.211.493-.555.493-1.03 0-.457-.165-.79-.493-.997-.328-.206-.82-.31-1.477-.31h-3.137v2.654h3.137zm20.589-1.75a2.502 2.502 0 00-.639-.52 3.394 3.394 0 00-.866-.35 4.021 4.021 0 00-1.012-.126c-.644 0-1.191.09-1.641.27-.44.175-.816.424-1.094.727a2.81 2.81 0 00-.611 1.036 3.816 3.816 0 00-.192 1.201c0 .396.065.782.192 1.155.128.375.331.711.611 1.01.28.3.644.54 1.094.72.45.18.997.27 1.641.27.876 0 1.559-.193 2.052-.58.492-.387.793-.898.903-1.532h2.772a3.787 3.787 0 01-.566 1.597c-.304.476-.705.88-1.203 1.215a5.734 5.734 0 01-1.751.765 8.656 8.656 0 01-2.207.264c-.997 0-1.893-.125-2.69-.376-.796-.25-1.468-.596-2.015-1.036a4.56 4.56 0 01-1.258-1.551 4.295 4.295 0 01-.438-1.921c0-.704.146-1.358.438-1.96a4.652 4.652 0 011.258-1.578c.547-.449 1.219-.8 2.015-1.056.796-.255 1.693-.383 2.69-.383a8.9 8.9 0 012.034.224c.638.15 1.21.368 1.714.654.504.286.921.64 1.249 1.063.328.422.535.906.62 1.452h-2.772a1.441 1.441 0 00-.328-.653zm14.899-2.514v1.742h-6.875v2.02h6.309v1.61h-6.309v2.311h7.021v1.742h-9.884v-9.425h9.738zm4.924 0l5.434 6.323h.037v-6.323h2.681v9.425h-2.863l-5.417-6.31h-.036v6.31h-2.681v-9.425h2.845zm9.647 1.742v-1.742h10.668v1.742h-3.902v7.683h-2.863v-7.683h-3.903zm19.185-1.742a5.65 5.65 0 011.577.204c.468.137.869.324 1.204.561.331.234.591.515.766.825.176.313.264.65.264 1.01 0 .555-.161 1.035-.483 1.44-.323.404-.848.712-1.578.923v.027c.353.07.645.178.876.323.23.145.422.32.565.515.146.198.252.416.319.653.067.238.112.476.137.713.012.15.024.326.036.528.012.203.034.41.065.62.03.212.078.412.145.601.067.19.167.35.301.482h-2.863a2.806 2.806 0 01-.292-1.07 11.697 11.697 0 00-.164-1.187c-.097-.493-.304-.854-.62-1.083-.316-.229-.832-.343-1.55-.343h-2.863v3.683h-2.863v-9.425h7.021zm-1.021 4.264c.656 0 1.148-.106 1.477-.317.328-.211.492-.555.492-1.03 0-.457-.164-.79-.492-.997-.329-.206-.821-.31-1.477-.31h-3.137v2.654h3.137zm16.904-4.264v1.742h-6.875v2.02h6.31v1.61h-6.31v2.311h7.021v1.742h-9.884v-9.425h9.738z" fill="#6D7782"/></g><defs><clipPath id="clip0_216_685"><path fill="#fff" transform="translate(0 .5)" d="M0 0h244v39H0z"/></clipPath></defs></svg>
